sources/design/Outline/x.svg

<svg:svg xmlns:cc="http://creativecommons.org/ns#" xmlns:dc="http://purl.org/dc/elements/1.1/" xmlns:inkscape="http://www.inkscape.org/namespaces/inkscape" xmlns:rdf="http://www.w3.org/1999/02/22-rdf-syntax-ns#" xmlns:sodipodi="http://sodipodi.sourceforge.net/DTD/sodipodi-0.dtd" xmlns:svg="http://www.w3.org/2000/svg" xml:space="preserve" width="1000" height="1000" version="1.1" style="clip-rule:evenodd;fill-rule:evenodd;image-rendering:optimizeQuality;shape-rendering:geometricPrecision;text-rendering:geometricPrecision" viewBox="0 0 1000 1000" id="svg10" sodipodi:docname="x.svg" inkscape:version="1.0.2 (e86c870879, 2021-01-15)"><svg:metadata id="metadata14"><rdf:RDF><cc:Work rdf:about=""><dc:format>image/svg+xml</dc:format><dc:type rdf:resource="http://purl.org/dc/dcmitype/StillImage" /><dc:title /></cc:Work></rdf:RDF></svg:metadata><sodipodi:namedview pagecolor="#ffffff" bordercolor="#666666" borderopacity="1" objecttolerance="10" gridtolerance="10" guidetolerance="10" inkscape:pageopacity="0" inkscape:pageshadow="2" inkscape:window-width="1920" inkscape:window-height="1007" id="namedview12" showgrid="false" inkscape:zoom="0.84890884" inkscape:cx="322.1717" inkscape:cy="557.02677" inkscape:window-x="1920" inkscape:window-y="0" inkscape:window-maximized="1" inkscape:current-layer="g932" showguides="true" inkscape:guide-bbox="true" inkscape:document-rotation="0" inkscape:pagecheckerboard="0"><sodipodi:guide position="0,1000" orientation="0,1" id="guide16" inkscape:label="" inkscape:locked="true" inkscape:color="rgb(0,0,255)" /><sodipodi:guide position="1763.3122,2036.1693" orientation="1000,0" id="guide18" /><sodipodi:guide position="0,200" orientation="0,1" id="guide20" inkscape:label="base" inkscape:locked="true" inkscape:color="rgb(0,0,255)" /><inkscape:grid type="xygrid" id="grid24" originx="-473.37552" originy="-489.69235" /><sodipodi:guide position="0,0" orientation="0,1" id="guide34" inkscape:label="bottom" inkscape:locked="true" inkscape:color="rgb(0,0,255)" /><sodipodi:guide position="225.05109,1693.3186" orientation="0,1" id="guide44" inkscape:label="" inkscape:locked="false" inkscape:color="rgb(0,0,255)" /><sodipodi:guide position="0,900" orientation="0,1" id="guide46" inkscape:label="" inkscape:locked="true" inkscape:color="rgb(0,0,255)" /><sodipodi:guide position="451.40065,504.01669" orientation="1,0" id="guide841" inkscape:label="width" />    <sodipodi:guide position="176.69742,799.74293" orientation="0,-1" id="guide851" /></sodipodi:namedview>
 <svg:defs id="defs4"><inkscape:path-effect effect="fillet_chamfer" id="path-effect927" is_visible="true" lpeversion="1" satellites_param="F,0,1,1,0,18.897056,0,1 @ F,0,1,1,0,18.897056,0,1 @ F,0,0,1,0,0,0,1 @ F,0,1,1,0,18.897056,0,1 @ F,0,1,1,0,18.897056,0,1 @ F,0,0,1,0,0,0,1" unit="px" method="auto" mode="F" radius="0" chamfer_steps="1" flexible="false" use_knot_distance="true" apply_no_radius="true" apply_with_radius="true" only_selected="true" hide_knots="false" /><inkscape:path-effect effect="fillet_chamfer" id="path-effect925" is_visible="true" lpeversion="1" satellites_param="F,0,0,1,0,18.109191,0,1 @ F,0,0,1,0,18.109191,0,1 @ F,0,0,1,0,26.287674,0,1 @ F,0,0,1,0,18.109191,0,1 @ F,0,0,1,0,18.109191,0,1 @ F,0,0,1,0,22.803762,0,1 | F,0,0,1,0,17.987201,0,1 @ F,0,0,1,0,17.987201,0,1 @ F,0,0,1,0,0,0,1 @ F,0,0,1,0,24.607575,0,1 @ F,0,0,1,0,24.607575,0,1 @ F,0,0,1,0,0,0,1" unit="px" method="auto" mode="F" radius="0" chamfer_steps="1" flexible="false" use_knot_distance="true" apply_no_radius="true" apply_with_radius="true" only_selected="true" hide_knots="false" /><inkscape:path-effect effect="spiro" id="path-effect921" is_visible="true" lpeversion="1" /><inkscape:path-effect effect="spiro" id="path-effect879" is_visible="true" lpeversion="1" /><inkscape:path-effect effect="fillet_chamfer" id="path-effect858" is_visible="true" lpeversion="1" satellites_param="F,0,0,1,1,24.561116,0,1 @ F,0,0,1,1,24.561116,0,1 @ F,0,0,1,1,0,0,1 @ F,0,0,1,1,24.561116,0,1 @ F,0,0,1,1,24.561116,0,1 @ F,0,0,1,1,0,0,1 | F,0,0,1,1,0,0,1 @ F,0,1,1,1,23.073479,0,1 @ F,0,0,1,1,24.561116,0,1 @ F,0,0,1,1,0,0,1 @ F,0,0,1,1,0,0,1 @ F,0,0,1,1,0,0,1 @ F,0,0,1,1,0,0,1 @ F,0,0,1,1,0,0,1 @ F,0,0,1,1,0,0,1 @ F,0,0,1,1,24.561116,0,1 @ F,0,0,1,1,24.561116,0,1 @ F,0,0,1,1,0,0,1 @ F,0,0,1,1,0,0,1 @ F,0,0,1,1,0,0,1 @ F,0,0,1,1,0,0,1 @ F,0,0,1,1,0,0,1 @ F,0,0,1,1,0,0,1" unit="px" method="auto" mode="F" radius="0" chamfer_steps="1" flexible="false" use_knot_distance="true" apply_no_radius="true" apply_with_radius="true" only_selected="true" hide_knots="true" /><inkscape:path-effect effect="fillet_chamfer" id="path-effect861" is_visible="true" lpeversion="1" satellites_param="F,0,0,1,0,0,0,1 @ F,0,0,1,0,0,0,1 @ F,0,0,1,0,0,0,1 @ F,0,0,1,0,0,0,1 @ F,0,0,1,0,0,0,1 @ F,0,0,1,0,25.824355,0,1 @ F,0,0,1,0,32.935601,0,1 @ F,0,0,1,0,0,0,1 @ F,0,0,1,0,0,0,1 @ F,0,0,1,0,0,0,1 @ F,0,0,1,0,0,0,1 @ F,0,0,1,0,0,0,1 @ F,0,0,1,0,18.816392,0,1 @ F,0,0,1,0,25.628802,0,1 | F,0,0,1,0,0,0,1 @ F,0,0,1,0,0,0,1 @ F,0,0,1,0,0,0,1 @ F,0,0,1,0,0,0,1 @ F,0,0,1,0,0,0,1 @ F,0,0,1,0,0,0,1 @ F,0,0,1,0,0,0,1 @ F,0,0,1,0,0,0,1 @ F,0,0,1,0,0,0,1 @ F,0,0,1,0,0,0,1 @ F,0,0,1,0,0,0,1 @ F,0,0,1,0,0,0,1 @ F,0,0,1,0,0,0,1 @ F,0,0,1,0,0,0,1 @ F,0,0,1,0,0,0,1" unit="px" method="auto" mode="F" radius="0" chamfer_steps="1" flexible="false" use_knot_distance="true" apply_no_radius="true" apply_with_radius="true" only_selected="true" hide_knots="false" /><inkscape:path-effect effect="fillet_chamfer" id="path-effect863" is_visible="true" lpeversion="1" satellites_param="F,0,0,1,0,22.550474,0,1 @ F,0,0,1,0,16.483744,0,1 @ F,0,0,1,0,0,0,1 @ F,0,0,1,0,0,0,1 @ F,0,0,1,0,0,0,1 @ F,0,0,1,0,0,0,1 @ F,0,0,1,0,0,0,1 @ F,0,0,1,0,27.655362,0,1 @ F,0,0,1,0,19.643541,0,1 @ F,0,0,1,0,0,0,1 @ F,0,0,1,0,0,0,1 @ F,0,0,1,0,0,0,1 @ F,0,0,1,0,0,0,1 @ F,0,0,1,0,0,0,1" unit="px" method="auto" mode="F" radius="0" chamfer_steps="1" flexible="false" use_knot_distance="true" apply_no_radius="true" apply_with_radius="true" only_selected="true" hide_knots="false" /><inkscape:path-effect effect="spiro" id="path-effect859" is_visible="true" lpeversion="1" /><inkscape:path-effect effect="spiro" id="path-effect872" is_visible="true" lpeversion="1" /><inkscape:path-effect effect="spiro" id="path-effect869" is_visible="true" lpeversion="1" /><inkscape:path-effect effect="spiro" id="path-effect850" is_visible="true" lpeversion="1" /><inkscape:path-effect effect="spiro" id="path-effect849" is_visible="true" lpeversion="1" /><inkscape:path-effect effect="spiro" id="path-effect851" is_visible="true" lpeversion="1" />
  <svg:style type="text/css" id="style2">
   
    .fil0 {fill:#EF7F1A;fill-rule:nonzero}
   
  </svg:style>
 <inkscape:path-effect effect="spiro" id="path-effect1214" is_visible="true" lpeversion="1" /><inkscape:path-effect effect="spiro" id="path-effect1195" is_visible="true" lpeversion="1" /><inkscape:path-effect effect="spiro" id="path-effect992" is_visible="true" lpeversion="1" /><inkscape:path-effect effect="spiro" id="path-effect1060" is_visible="true" lpeversion="1" /><inkscape:path-effect effect="spiro" id="path-effect1047" is_visible="true" lpeversion="1" /><inkscape:path-effect effect="spiro" id="path-effect1085" is_visible="true" lpeversion="1" /><inkscape:path-effect effect="spiro" id="path-effect1286" is_visible="true" lpeversion="1" /></svg:defs>
 
 <svg:g id="g932"><svg:g id="path855-0-1"><svg:path style="color:#000000;fill:#1a5fb4;fill-rule:nonzero;stroke-linecap:round;stroke-linejoin:round;-inkscape-stroke:none;paint-order:fill stroke markers" d="M 414.4082,168.62695 C 401.40287,169.61739 390.49294000000003,177.21876 383.57031,184.82617 C 328.26725,245.5998 274.57357,307.83054 222.4043,371.31445 C 201.70718,322.25253 185.78274,271.16337 175.14648,219.00781 C 172.24063,204.7588 163.35295,191.66155 150.58203,184.35547 C 137.81112000000002,177.04939 121.64236,176.03110999999998 107.77344,181.10742 L 23.488281,211.95702999999997 C 9.673472400000001,217.01353999999998 -2.2537479000000005,228.30134999999999 -7.082031199999999,242.57421999999997 C -11.910315,256.84709 -9.288941399999999,273.03731 -1.4003905999999997,285.44140999999996 C 41.981056,353.65515 84.699909,422.28622 127.02539,491.16016 C 78.965797,553.52953 32.334607,616.99902 -12.65625,681.61719 C -27.660234000000003,703.16668 -23.176399,732.3283200000001 -2.5273438000000006,748.4335900000001 L 79.224609,812.1953100000001 C 90.030353,820.62327 106.46078,825.5510700000001 121.66991999999999,820.40039 C 136.87906999999998,815.24971 146.73024999999998,801.7147600000001 150.4082,788.67773 C 165.62676,734.73346 186.77125999999998,682.44152 213.15625,632.95898 C 246.49111,688.50698 279.60734,744.18534 312.25391,800.14062 C 325.32644000000005,822.54657 359.8818,828.90703 380.07031,812.58984 L 455.61914,751.52734 C 465.61898,743.44506 472.58294,730.33484 472.50586000000004,716.7792999999999 C 472.42876000000007,703.22376 465.47485000000006,690.4409099999999 455.62500000000006,682.4199199999999 C 394.33187,632.50735 340.58599,573.32525 296.38672,507.77148 C 341.05441,452.92012 393.14195,404.05401 450.87305,363.19141 C 470.65981,349.18615 479.14499,329.86155 474.875,305.41016 L 457.57812,206.35742000000002 C 455.22216000000003,192.86637000000002 446.96277000000003,175.61890000000002 428.04102,170.08398000000003 C 423.31058,168.70026000000001 418.74331,168.29681000000002 414.4082,168.62695000000002 L 414.4082,168.62695 M 118.61914,241.0293 C 132.22702,303.91075 152.84,365.21493 179.99023,423.52930000000003 C 175.55549,429.08395 170.95101,434.88068000000004 166.37695,440.65430000000003 C 129.93024,381.53482 93.195661,322.59279 55.972656,263.95898 L 118.61914,241.0293 M 404.52734000000004,251.35352 L 415.54687,314.46094 C 415.78777,314.36026 415.8607,314.46494 416.20898,314.21875 C 415.99841,314.3678 415.79637,314.52849 415.58594,314.67773 L 415.76953,315.73242 C 415.66933,315.15866 415.5261,315.11818999999997 415.39844,314.81641 C 359.14441,354.7353 307.95678,401.65741 263.10937,454.04687 C 258.89763,446.58782 254.73408,439.1035 250.76367000000002,431.51172 C 300.53511000000003,370.21142000000003 351.80955,310.13924000000003 404.52734,251.35352000000003 L 404.52734000000004,251.35352 M 415.00195,313.83789 C 414.34706,313.4152 414.05842,314.88686 415.29297,314.55469 C 415.19046000000003,314.36983 415.10341000000005,313.90337999999997 415.00195,313.83789 M 210.07422,482.10352 C 212.19584,485.87764 214.19819,489.71703 216.37695,493.45898 C 218.56655,497.21954 220.95283,500.85961 223.19922,504.58594 C 219.94062,509.03859 216.53434,513.46458 213.98242,517.09766 C 213.86480999999998,517.2651000000001 213.75812,517.43989 213.64061999999998,517.60742 C 211.07557999999997,513.39299 208.56508,509.14562000000006 205.99608999999998,504.93359000000004 C 203.99138,501.64673000000005 201.94266,498.38696000000004 199.93554999999998,495.10156000000006 C 202.73448999999997,491.5329300000001 205.47421999999997,487.9181500000001 208.28319999999997,484.35742000000005 C 208.77265999999997,483.7369800000001 209.53785999999997,482.78220000000005 210.07421999999997,482.10352000000006 L 210.07422,482.10352 M 160.61328,545.85937 C 166.28385,555.17169 171.85661,564.5431100000001 177.50781,573.86719 C 144.59279,629.8045800000001 118.27003,689.54854 99.023437,751.54492 L 42.535156,707.48828 C 80.779759,652.80877 120.13511,598.90682 160.61328,545.85937 M 258.36523,558.60742 C 299.85861,617.05722 348.73807,670.1653100000001 403.32031,716.65039 L 355.47461,755.3203100000001 C 320.03119,694.72059 284.08579,634.41689 247.83789,574.29492 C 251.27415,569.01634 254.80195999999998,563.8001300000001 258.36523,558.60742" id="path177" /></svg:g></svg:g></svg:svg>

<svg:svg xmlns:cc="http://creativecommons.org/ns#" xmlns:dc="http://purl.org/dc/elements/1.1/" xmlns:inkscape="http://www.inkscape.org/namespaces/inkscape" xmlns:rdf="http://www.w3.org/1999/02/22-rdf-syntax-ns#" xmlns:sodipodi="http://sodipodi.sourceforge.net/DTD/sodipodi-0.dtd" xmlns:svg="http://www.w3.org/2000/svg" xml:space="preserve" width="1000" height="1000" version="1.1" style="clip-rule:evenodd;fill-rule:evenodd;image-rendering:optimizeQuality;shape-rendering:geometricPrecision;text-rendering:geometricPrecision" viewBox="0 0 1000 1000" id="svg10" sodipodi:docname="x.svg" inkscape:version="1.0.2 (e86c870879, 2021-01-15)"><svg:metadata id="metadata14"><rdf:RDF><cc:Work rdf:about=""><dc:format>image/svg+xml</dc:format><dc:type rdf:resource="http://purl.org/dc/dcmitype/StillImage" /><dc:title /></cc:Work></rdf:RDF></svg:metadata><sodipodi:namedview pagecolor="#ffffff" bordercolor="#666666" borderopacity="1" objecttolerance="10" gridtolerance="10" guidetolerance="10" inkscape:pageopacity="0" inkscape:pageshadow="2" inkscape:window-width="1920" inkscape:window-height="1007" id="namedview12" showgrid="false" inkscape:zoom="0.84890884" inkscape:cx="322.1717" inkscape:cy="557.02677" inkscape:window-x="1920" inkscape:window-y="0" inkscape:window-maximized="1" inkscape:current-layer="g932" showguides="true" inkscape:guide-bbox="true" inkscape:document-rotation="0" inkscape:pagecheckerboard="0"><sodipodi:guide position="0,1000" orientation="0,1" id="guide16" inkscape:label="" inkscape:locked="true" inkscape:color="rgb(0,0,255)" /><sodipodi:guide position="1763.3122,2036.1693" orientation="1000,0" id="guide18" /><sodipodi:guide position="0,200" orientation="0,1" id="guide20" inkscape:label="base" inkscape:locked="true" inkscape:color="rgb(0,0,255)" /><inkscape:grid type="xygrid" id="grid24" originx="-473.37552" originy="-489.69235" /><sodipodi:guide position="0,0" orientation="0,1" id="guide34" inkscape:label="bottom" inkscape:locked="true" inkscape:color="rgb(0,0,255)" /><sodipodi:guide position="225.05109,1693.3186" orientation="0,1" id="guide44" inkscape:label="" inkscape:locked="false" inkscape:color="rgb(0,0,255)" /><sodipodi:guide position="0,900" orientation="0,1" id="guide46" inkscape:label="" inkscape:locked="true" inkscape:color="rgb(0,0,255)" /><sodipodi:guide position="451.40065,504.01669" orientation="1,0" id="guide841" inkscape:label="width" />    <sodipodi:guide position="176.69742,799.74293" orientation="0,-1" id="guide851" /></sodipodi:namedview>
 <svg:defs id="defs4"><inkscape:path-effect effect="fillet_chamfer" id="path-effect927" is_visible="true" lpeversion="1" satellites_param="F,0,1,1,0,18.897056,0,1 @ F,0,1,1,0,18.897056,0,1 @ F,0,0,1,0,0,0,1 @ F,0,1,1,0,18.897056,0,1 @ F,0,1,1,0,18.897056,0,1 @ F,0,0,1,0,0,0,1" unit="px" method="auto" mode="F" radius="0" chamfer_steps="1" flexible="false" use_knot_distance="true" apply_no_radius="true" apply_with_radius="true" only_selected="true" hide_knots="false" /><inkscape:path-effect effect="fillet_chamfer" id="path-effect925" is_visible="true" lpeversion="1" satellites_param="F,0,0,1,0,18.109191,0,1 @ F,0,0,1,0,18.109191,0,1 @ F,0,0,1,0,26.287674,0,1 @ F,0,0,1,0,18.109191,0,1 @ F,0,0,1,0,18.109191,0,1 @ F,0,0,1,0,22.803762,0,1 | F,0,0,1,0,17.987201,0,1 @ F,0,0,1,0,17.987201,0,1 @ F,0,0,1,0,0,0,1 @ F,0,0,1,0,24.607575,0,1 @ F,0,0,1,0,24.607575,0,1 @ F,0,0,1,0,0,0,1" unit="px" method="auto" mode="F" radius="0" chamfer_steps="1" flexible="false" use_knot_distance="true" apply_no_radius="true" apply_with_radius="true" only_selected="true" hide_knots="false" /><inkscape:path-effect effect="spiro" id="path-effect921" is_visible="true" lpeversion="1" /><inkscape:path-effect effect="spiro" id="path-effect879" is_visible="true" lpeversion="1" /><inkscape:path-effect effect="fillet_chamfer" id="path-effect858" is_visible="true" lpeversion="1" satellites_param="F,0,0,1,1,24.561116,0,1 @ F,0,0,1,1,24.561116,0,1 @ F,0,0,1,1,0,0,1 @ F,0,0,1,1,24.561116,0,1 @ F,0,0,1,1,24.561116,0,1 @ F,0,0,1,1,0,0,1 | F,0,0,1,1,0,0,1 @ F,0,1,1,1,23.073479,0,1 @ F,0,0,1,1,24.561116,0,1 @ F,0,0,1,1,0,0,1 @ F,0,0,1,1,0,0,1 @ F,0,0,1,1,0,0,1 @ F,0,0,1,1,0,0,1 @ F,0,0,1,1,0,0,1 @ F,0,0,1,1,0,0,1 @ F,0,0,1,1,24.561116,0,1 @ F,0,0,1,1,24.561116,0,1 @ F,0,0,1,1,0,0,1 @ F,0,0,1,1,0,0,1 @ F,0,0,1,1,0,0,1 @ F,0,0,1,1,0,0,1 @ F,0,0,1,1,0,0,1 @ F,0,0,1,1,0,0,1" unit="px" method="auto" mode="F" radius="0" chamfer_steps="1" flexible="false" use_knot_distance="true" apply_no_radius="true" apply_with_radius="true" only_selected="true" hide_knots="true" /><inkscape:path-effect effect="fillet_chamfer" id="path-effect861" is_visible="true" lpeversion="1" satellites_param="F,0,0,1,0,0,0,1 @ F,0,0,1,0,0,0,1 @ F,0,0,1,0,0,0,1 @ F,0,0,1,0,0,0,1 @ F,0,0,1,0,0,0,1 @ F,0,0,1,0,25.824355,0,1 @ F,0,0,1,0,32.935601,0,1 @ F,0,0,1,0,0,0,1 @ F,0,0,1,0,0,0,1 @ F,0,0,1,0,0,0,1 @ F,0,0,1,0,0,0,1 @ F,0,0,1,0,0,0,1 @ F,0,0,1,0,18.816392,0,1 @ F,0,0,1,0,25.628802,0,1 | F,0,0,1,0,0,0,1 @ F,0,0,1,0,0,0,1 @ F,0,0,1,0,0,0,1 @ F,0,0,1,0,0,0,1 @ F,0,0,1,0,0,0,1 @ F,0,0,1,0,0,0,1 @ F,0,0,1,0,0,0,1 @ F,0,0,1,0,0,0,1 @ F,0,0,1,0,0,0,1 @ F,0,0,1,0,0,0,1 @ F,0,0,1,0,0,0,1 @ F,0,0,1,0,0,0,1 @ F,0,0,1,0,0,0,1 @ F,0,0,1,0,0,0,1 @ F,0,0,1,0,0,0,1" unit="px" method="auto" mode="F" radius="0" chamfer_steps="1" flexible="false" use_knot_distance="true" apply_no_radius="true" apply_with_radius="true" only_selected="true" hide_knots="false" /><inkscape:path-effect effect="fillet_chamfer" id="path-effect863" is_visible="true" lpeversion="1" satellites_param="F,0,0,1,0,22.550474,0,1 @ F,0,0,1,0,16.483744,0,1 @ F,0,0,1,0,0,0,1 @ F,0,0,1,0,0,0,1 @ F,0,0,1,0,0,0,1 @ F,0,0,1,0,0,0,1 @ F,0,0,1,0,0,0,1 @ F,0,0,1,0,27.655362,0,1 @ F,0,0,1,0,19.643541,0,1 @ F,0,0,1,0,0,0,1 @ F,0,0,1,0,0,0,1 @ F,0,0,1,0,0,0,1 @ F,0,0,1,0,0,0,1 @ F,0,0,1,0,0,0,1" unit="px" method="auto" mode="F" radius="0" chamfer_steps="1" flexible="false" use_knot_distance="true" apply_no_radius="true" apply_with_radius="true" only_selected="true" hide_knots="false" /><inkscape:path-effect effect="spiro" id="path-effect859" is_visible="true" lpeversion="1" /><inkscape:path-effect effect="spiro" id="path-effect872" is_visible="true" lpeversion="1" /><inkscape:path-effect effect="spiro" id="path-effect869" is_visible="true" lpeversion="1" /><inkscape:path-effect effect="spiro" id="path-effect850" is_visible="true" lpeversion="1" /><inkscape:path-effect effect="spiro" id="path-effect849" is_visible="true" lpeversion="1" /><inkscape:path-effect effect="spiro" id="path-effect851" is_visible="true" lpeversion="1" />
  <svg:style type="text/css" id="style2">
   
    .fil0 {fill:#EF7F1A;fill-rule:nonzero}
   
  </svg:style>
 <inkscape:path-effect effect="spiro" id="path-effect1214" is_visible="true" lpeversion="1" /><inkscape:path-effect effect="spiro" id="path-effect1195" is_visible="true" lpeversion="1" /><inkscape:path-effect effect="spiro" id="path-effect992" is_visible="true" lpeversion="1" /><inkscape:path-effect effect="spiro" id="path-effect1060" is_visible="true" lpeversion="1" /><inkscape:path-effect effect="spiro" id="path-effect1047" is_visible="true" lpeversion="1" /><inkscape:path-effect effect="spiro" id="path-effect1085" is_visible="true" lpeversion="1" /><inkscape:path-effect effect="spiro" id="path-effect1286" is_visible="true" lpeversion="1" /></svg:defs>
 
 <svg:g id="g932"><svg:g id="path855-0-1"><svg:path style="color:#000000;fill:#1a5fb4;fill-rule:nonzero;stroke-linecap:round;stroke-linejoin:round;-inkscape-stroke:none" d="m 414.4082,168.62695 c -13.00533,0.99044 -23.91526,8.59181 -30.83789,16.19922 C 328.26725,245.5998 274.57357,307.83054 222.4043,371.31445 201.70718,322.25253 185.78274,271.16337 175.14648,219.00781 c -2.90585,-14.24901 -11.79353,-27.34626 -24.56445,-34.65234 -12.77091,-7.30608 -28.93967,-8.32436 -42.80859,-3.24805 l -84.285159,30.84961 c -13.8148086,5.05651 -25.7420289,16.34432 -30.5703122,30.61719 -4.8282838,14.27287 -2.2069102,30.46309 5.6816406,42.86719 C 41.981056,353.65515 84.699909,422.28622 127.02539,491.16016 78.965797,553.52953 32.334607,616.99902 -12.65625,681.61719 c -15.003984,21.54949 -10.520149,50.71113 10.1289062,66.8164 l 81.7519528,63.76172 c 10.805744,8.42796 27.236171,13.35576 42.445311,8.20508 15.20915,-5.15068 25.06033,-18.68563 28.73828,-31.72266 15.21856,-53.94427 36.36306,-106.23621 62.74805,-155.71875 33.33486,55.548 66.45109,111.22636 99.09766,167.18164 13.07253,22.40595 47.62789,28.76641 67.8164,12.44922 l 75.54883,-61.0625 c 9.99984,-8.08228 16.9638,-21.1925 16.88672,-34.74804 -0.0771,-13.55554 -7.03101,-26.33839 -16.88086,-34.35938 C 394.33187,632.50735 340.58599,573.32525 296.38672,507.77148 341.05441,452.92012 393.14195,404.05401 450.87305,363.19141 470.65981,349.18615 479.14499,329.86155 474.875,305.41016 l -17.29688,-99.05274 c -2.35596,-13.49105 -10.61535,-30.73852 -29.5371,-36.27344 -4.73044,-1.38372 -9.29771,-1.78717 -13.63282,-1.45703 z M 118.61914,241.0293 c 13.60788,62.88145 34.22086,124.18563 61.37109,182.5 -4.43474,5.55465 -9.03922,11.35138 -13.61328,17.125 C 129.93024,381.53482 93.195661,322.59279 55.972656,263.95898 Z m 285.9082,10.32422 11.01953,63.10742 c 0.2409,-0.10068 0.31383,0.004 0.66211,-0.24219 -0.21057,0.14905 -0.41261,0.30974 -0.62304,0.45898 l 0.18359,1.05469 c -0.1002,-0.57376 -0.24343,-0.61423 -0.37109,-0.91601 -56.25403,39.91889 -107.44166,86.841 -152.28907,139.23046 -4.21174,-7.45905 -8.37529,-14.94337 -12.3457,-22.53515 49.77144,-61.3003 101.04588,-121.37248 153.76367,-180.1582 z m 10.47461,62.48437 c -0.65489,-0.42269 -0.94353,1.04897 0.29102,0.7168 -0.10251,-0.18486 -0.18956,-0.65131 -0.29102,-0.7168 z M 210.07422,482.10352 c 2.12162,3.77412 4.12397,7.61351 6.30273,11.35546 2.1896,3.76056 4.57588,7.40063 6.82227,11.12696 -3.2586,4.45265 -6.66488,8.87864 -9.2168,12.51172 -0.11761,0.16744 -0.2243,0.34223 -0.3418,0.50976 -2.56504,-4.21443 -5.07554,-8.4618 -7.64453,-12.67383 -2.00471,-3.28686 -4.05343,-6.54663 -6.06054,-9.83203 2.79894,-3.56863 5.53867,-7.18341 8.34765,-10.74414 0.48946,-0.62044 1.25466,-1.57522 1.79102,-2.2539 z m -49.46094,63.75585 c 5.67057,9.31232 11.24333,18.68374 16.89453,28.00782 -32.91502,55.93739 -59.23778,115.68135 -78.484373,177.67773 L 42.535156,707.48828 C 80.779759,652.80877 120.13511,598.90682 160.61328,545.85937 Z m 97.75195,12.74805 c 41.49338,58.4498 90.37284,111.55789 144.95508,158.04297 l -47.8457,38.66992 C 320.03119,694.72059 284.08579,634.41689 247.83789,574.29492 c 3.43626,-5.27858 6.96407,-10.49479 10.52734,-15.6875 z" id="path177" /></svg:g></svg:g></svg:svg>
